!!!ONB: MCCC : IJH0423_03 : Extracted Monophonic Melody
!!!COM: Haydn, Joseph
!!!OPR: String Quartet in C major
!!!OMV: 3
!!!SCT: Hob.III:77 ; Op.76 No.3
!!!ODT: 1796///
**kern
*thru
*k[]
*C:
*clefF
*M3/4
4cc
=1
4b
4cc
4ee
=2
2g
4cc
=3
2d
4a
=4
4.G
8a
8g
8f
=5
4f
4e
4cc
=6
4b
4cc
4ee
=7
4f
4e
8a
8cc
=8
4ee
4dd
4gg
=9
4ff#
4gg
4aa
=10
4gg#
4aa
8ccc
8aa
=11
2gg
8aa
8ff#
=12
4gg
4r
16ff#
8.gg
=13
16cc#
8.dd
16a#
8.b
16f#
8.g
=14
2d
4g
=15
4a
8a
8b
8cc
8dd
=16
4cc
4b
4bb
=17
4gg
4dd
4b
=18
2g
8dd
8b
=19
4a
8a
8g
8a
8b
=20
4g
4r
4dd
=21
4cc#
4dd
4ff
=22
4cc
4b
4gg[
=23
4gg]
4ee-
4ff[
=24
4ff]
4dd
4ee-[
=25
4ee-]
4dd
4cc[
=26
4cc]
4b
4g
=27
4f#
4g
4d
=28
4e-
4d
4g
=29
4f#
4g
4d
=30
4e-
4d
4f
=31
4e
4f
4r
=32
4r
4r
4cc
=33
4b
4cc
4ee
=34
2g
4cc
=35
2d
4a
=36
4.G
8a
8g
8f
=37
4f
4e
4r
=38
4r
4r
4cc[
=39
4cc]
4b
4r
=40
4r
4r
4dd[
=41
4dd]
4cc#
4ff
=42
4ee
4ff
4aa
=43
4bb-
4aa
4ff
=44
4aa
4gg
4ccc
=45
4bb
4ccc
4ddd
=46
4ccc#
4ddd
8fff
8ddd
=47
2ccc
8ddd
8bb
=48
4ccc
4r
16bb
8.ccc
=49
16ff#
8.gg
16dd#
8.ee
16b
8.cc
=50
2g
4cc
=51
4dd
8dd
8ee
8ff
8gg
=52
4ff
4ee
4eee
=53
4ccc
4gg
4ee
=54
2cc
8gg
8ee
=55
4dd
8dd
8cc
8dd
8ee
=56
4cc
4r
4e
=57
2cc
4a
=58
2f
4d
=59
4B
8B
8c
8d
8e
=60
4c
4A
4e
=61
2cc
4a
=62
2f
4e
=63
4d#
8d#
8e
8f#
8d#
=64
4e
4r
4e
=65
2cc
4a
=66
2f
4d
=67
4B-
8A
8c#
8e
8g
=68
4f
4d
4d
=69
2dd
4b
=70
2g#
4e
=71
2a
4e
=72
4c
4B
4A
=73
4G#
4B
4d#
=74
4e
4g#
4b
=75
2.ee[
=76
2ee]
4e
=77
2cc#
4a
=78
4e
4r
4e
=79
2dd
4b
=80
4e
4r
4e
=81
4ee
4cc#
4a
=82
4ff#
4dd
4b
=83
2.a
=84
4g#
4r
4e
=85
2cc#
4a
=86
4e
4r
4e
=87
2dd
4b
=88
4e
4r
4e
=89
4ee
4cc#
4a
=90
4ff#
4dd
4b
=91
2a
4b
=92
4a
4r
4e
=93
2cc
4a
=94
2f
4d
=95
4B
8B
8c
8d
8e
=96
4c
4A
4e
=97
2cc
4a
=98
2f
4A
=99
4c
4d
4B
=100
4A
2r
==
*-
